!!!COM: Bach, Johann Sebastian
!!!CDT: 1685/3//-1750/7/28/
!!!OTL@@DE: Nun ruhen alle Waelder
!!!OTL@EN:  Now rests all the forest
!!!AGN: 4-Part Chorale
!!!SCT: BH 117
!!!SCT: BWV 244
**harm	**root	**kern	**kern	**kern	**kern
!	!	!bass	!tenor	!alto	!soprno
*	*Iorgan	*Iorgan	*Iorgan	*Iorgan	*Iorgan
*M4/4	*M4/4	*M4/4	*M4/4	*M4/4	*M4/4
*met(c)	*met(c)	*met(c)	*met(c)	*met(c)	*met(c)
*MM60	*MM60	*MM60	*MM60	*MM60	*MM60
*k[b-e-a-d-g-]	*k[b-e-a-d-g-]	*k[b-e-a-d-g-]	*k[b-e-a-d-g-]	*k[b-e-a-d-g-]	*k[b-e-a-d-g-]
*D-:	*D-:	*D-:	*D-:	*D-:	*D-:
I	4AA-	4d-	4a-	4dd-	4ff
=1	=1	=1	=1	=1	=1
IV	4DD-	8g-	4g-	4b-	4dd-
.	.	8f	.	.	.
viiob	4GG	4e-	4g-	4cc	4ee-
I	4AA-	4.d-	8a-	8dd-	8ff
.	.	.	8g-	8ee-	8gg-
I	4AA-	.	8f	4ff	4aa-
.	.	8c	8e-	.	.
=2	=2	=2	=2	=2	=2
IV7b	4DD-	4B-	4d-	4ff	2gg-
V7b	4EE-	4c	4a-	4ee-	.
I;	4AA-;	4d-;	4a-;	4dd-;	4ff;
vi	4FF	4B-	4b-	4dd-	8ff
.	.	.	.	.	8gg-
=3	=3	=3	=3	=3	=3
Ib	4AA-	8F	4a-	8dd-	4aa-
.	.	8E-	.	8cc	.
Ib	4AA-	8F	4a-	8dd-	4aa-
.	.	8G-	.	8b-	.
V	4EE-	8A-	4a-	8cc	4ee-
.	.	8G-	.	8b-	.
iii	4CC	4F	4c	4a-	4ff
=4	=4	=4	=4	=4	=4
viib/V	2DD	2B-	8d-	4a-	2dd-
.	.	.	8c	.	.
.	.	.	4d-	4g	.
V;	4EE-;	4A-;	4e-;	4a-;	4cc;
V7d	4EE-	4G-y	8c	4e-	4a-
.	.	.	8B-	.	.
=5	=5	=5	=5	=5	=5
Ib	4AA-	4F	4A-	4a-	4dd-
ii	4BB-	4E-	8B-	4g-	4ee-
.	.	.	8c	.	.
I	4AA-	8D-	4d-	8f	4ff
.	.	8E-	.	8g-	.
Ib	4AA-	8F	4d-	4a-	4ff
.	.	8G-	.	.	.
=6	=6	=6	=6	=6	=6
V;	2.EE-;	2.A-;	2.c;	2.a-;	2.ee-;
Vb/vi	4CC	4A	4f	4cc	4ff
!!linebreak: 2
=7	=7	=7	=7	=7	=7
vi	4FF	4B-	8f	4b-	4dd-
.	.	.	8g-	.	.
Vb	4EE-	4c	8f	4a-	4ee-
.	.	.	8e-	.	.
I	4AA-	4d-	8d-	4a-	8ff
.	.	.	8e-	.	8gg-
V7b/II	4FF	4d	4f	4b-	4aa-
=8	=8	=8	=8	=8	=8
ii	2BB-	4e-	8e-	8b-	2gg-
.	.	.	8f	8a-	.
.	.	4E-	8g-	8b-	.
.	.	.	8a-	8cc	.
VI;	4FF;	4B-;	4b-;	4dd;	4ff;
vi	4FF	4B-	4b-	4dd-	8ff
.	.	.	.	.	8gg-
=9	=9	=9	=9	=9	=9
Vb	4EE-	4c	8a-	4ee-	4aa-
.	.	.	8g-	.	.
I	4AA-	4d-	4f	8dd-	4aa-
.	.	.	.	8cc	.
V7d/V	4BB-	8d-	4g	4b-	4ee-
.	.	8c	.	.	.
III	4CC	8B-	4c	4cc	4ff
.	.	8A	.	.	.
=10	=10	=10	=10	=10	=10
vi	4FF	8B-	2f	4cc	2dd-
.	.	8c	.	.	.
vib	4FF	8d-	.	4b-	.
.	.	8e-	.	.	.
III;	4CC;	4f;	4f;	4a;	4cc;
iii	4CC	4F	4f	4a-	4a-
=11	=11	=11	=11	=11	=11
vi7	8FF	4B-	8f	8a-	4dd-
IVc	8DD-	.	8g-	8b-	.
iii7c	8CC	4c	8f	8a-	4ee-
viio	8GG	.	8e-	8g-	.
I	4AA-	8d-	4d-	8f	4ff
.	.	8c	.	8a-	.
IVb	4DD-	8B-	4d-	8b-	4gg-
.	.	8A-	.	8cc	.
=12	=12	=12	=12	=12	=12
IV7	4DD-	4G-	4b-	4dd-	4ff
V	4EE-	4A-	8e-	4cc	4ee-
.	.	.	16f	.	.
.	.	.	16g-	.	.
I;	4AA-;	4D-;	4f;	4a-;	4dd-;
==	==	==	==	==	==
*-	*-	*-	*-	*-	*-
!!chor2scor: -l 2 -s 0.6 -o %b.pmx
!!!YEC: Copyright 1994, David Huron
!!!YEC: Changes/Additions 2001 by Craig Stuart Sapp
!!!YEN: United States of America
!!!SMA: 371 Bach Chorales, edited by Ludwig Erk, C.F. Peters
!!!PDT: 1850, 1865
!!!ONB: Harmony and Root analysis done manually
